svgs/whatsapp_business.svg

<svg width="192" height="192" viewBox="0 0 192 192" fill="none" xmlns="http://www.w3.org/2000/svg">
<path d="M60.3586 160.867L63.2526 155.611C61.9465 154.892 60.4194 154.685 58.9689 155.03L60.3586 160.867ZM22 170L16.1631 168.61C15.6806 170.637 16.284 172.769 17.7573 174.243C19.2306 175.716 21.3628 176.319 23.3897 175.837L22 170ZM31.133 131.641L36.9698 133.031C37.3152 131.581 37.1081 130.054 36.3889 128.747L31.133 131.641ZM96 176C140.183 176 176 140.183 176 96H164C164 133.555 133.555 164 96 164V176ZM57.4646 166.123C68.9005 172.42 82.0411 176 96 176V164C84.1159 164 72.9605 160.957 63.2526 155.611L57.4646 166.123ZM23.3897 175.837L61.7483 166.704L58.9689 155.03L20.6103 164.163L23.3897 175.837ZM25.2961 130.252L16.1631 168.61L27.8368 171.39L36.9698 133.031L25.2961 130.252ZM16 96C16 109.959 19.5802 123.1 25.8771 134.535L36.3889 128.747C31.0435 119.039 28 107.884 28 96H16ZM96 16C51.8172 16 16 51.8172 16 96H28C28 58.4446 58.4446 28 96 28V16ZM176 96C176 51.8172 140.183 16 96 16V28C133.555 28 164 58.4446 164 96H176Z" fill="black"/>
<path d="M103 130H76V96H103C112.389 96 120 103.611 120 113C120 122.389 112.389 130 103 130Z" stroke="black" stroke-width="12" stroke-linejoin="round"/>
<path d="M101 96H76V62H101C110.389 62 118 69.6112 118 79C118 88.3888 110.389 96 101 96Z" stroke="black" stroke-width="12" stroke-linejoin="round"/>
</svg>

<svg xmlns="http://www.w3.org/2000/svg" width="192" height="192" fill="none" xmlns:v="https://vecta.io/nano"><path d="M60.359 160.867l2.894-5.256c-1.306-.719-2.833-.926-4.284-.581l1.39 5.837zM22 170l-5.837-1.39a6 6 0 0 0 7.227 7.227L22 170zm9.133-38.359l5.837 1.39a6 6 0 0 0-.581-4.284l-5.256 2.894zM96 176c44.183 0 80-35.817 80-80h-12c0 37.555-30.445 68-68 68v12zm-38.535-9.877C68.901 172.42 82.041 176 96 176v-12c-11.884 0-23.04-3.043-32.747-8.389l-5.788 10.512zm-34.075 9.714l38.359-9.133-2.779-11.674-38.359 9.133 2.779 11.674zm1.906-45.585l-9.133 38.358 11.674 2.78 9.133-38.359-11.674-2.779zM16 96c0 13.959 3.58 27.1 9.877 38.535l10.512-5.788C31.044 119.039 28 107.884 28 96H16zm80-80c-44.183 0-80 35.817-80 80h12c0-37.555 30.445-68 68-68V16zm80 80c0-44.183-35.817-80-80-80v12c37.555 0 68 30.445 68 68h12z" fill="#000"/><g stroke="#000" stroke-width="12" stroke-linejoin="round"><path d="M103 130H76V96h27c9.389 0 17 7.611 17 17s-7.611 17-17 17z"/><path d="M101 96H76V62h25c9.389 0 17 7.611 17 17s-7.611 17-17 17z"/></g></svg>
